packages/calcite-ui-icons/icons/multiple-variables-set-16.svg

<?xml version="1.0" encoding="UTF-8"?><svg id="icons" xmlns="http://www.w3.org/2000/svg" viewBox="0 0 16 16"><defs><style>.cls-1{fill:none;}</style></defs><path d="M3.5,1.31836L.10547,4.19043l1.47266,3.80957h3.84375l1.47266-3.80957L3.5,1.31836ZM4.73633,7h-2.47266l-.96875-2.50684,2.20508-1.86426,2.20508,1.86426-.96875,2.50684ZM8,13h-1.19171l-1.30829-3.65625,3-2.22626,2.4368,1.88251h-2.9368v4ZM11,6c1.6543,0,2.98999-1.3457,2.98999-3s-1.33569-3-2.98999-3-2.98999,1.3457-2.98999,3,1.33569,3,2.98999,3ZM11,1c1.10254,0,2,.89746,2,2s-.89746,2-2,2-2-.89746-2-2,.89746-2,2-2ZM11,16h-2v-6h2v1h-1v4h1v1ZM14,10v1h1v4h-1v1h2v-6h-2Z"/><rect class="cls-1" width="16" height="16"/></svg>

<svg xmlns="http://www.w3.org/2000/svg" viewBox="0 0 16 16"><path d="M3.5 1.318L.105 4.19 1.578 8h3.844l1.473-3.81L3.5 1.318zM4.736 7H2.264l-.97-2.507L3.5 2.63l2.205 1.864L4.736 7zM8 13H6.808L5.5 9.344l3-2.227L10.937 9H8v4zm3-7c1.654 0 2.99-1.346 2.99-3S12.654 0 11 0 8.01 1.346 8.01 3 9.346 6 11 6zm0-5c1.103 0 2 .897 2 2s-.897 2-2 2-2-.897-2-2 .897-2 2-2zm0 15H9v-6h2v1h-1v4h1v1zm3-6v1h1v4h-1v1h2v-6h-2z"/><path fill="none" d="M0 0h16v16H0z"/></svg>
